public/headerImg/phone.svg

<svg width="23" height="22" viewBox="0 0 23 22" fill="none" xmlns="http://www.w3.org/2000/svg">
<path fill-rule="evenodd" clip-rule="evenodd" d="M13.2424 4.3828C13.9507 4.52786 14.6231 4.81224 15.2206 5.21942C15.818 5.6266 16.3286 6.14845 16.7226 6.75466C17.1225 7.3603 17.399 8.03888 17.5363 8.75155C17.6736 9.46422 17.6689 10.197 17.5226 10.9078C17.4924 11.0578 17.5225 11.2137 17.6064 11.3416C17.6904 11.4695 17.8214 11.5591 17.9711 11.5909C18.0093 11.5989 18.0482 11.603 18.0872 11.6029C18.2203 11.6023 18.349 11.5557 18.4517 11.471C18.5543 11.3863 18.6245 11.2688 18.6503 11.1382C18.827 10.2785 18.8324 9.39228 18.6663 8.5304C18.5002 7.66852 18.1657 6.84785 17.6822 6.11532C17.2055 5.38212 16.5878 4.75098 15.865 4.25858C15.1423 3.76618 14.3289 3.42233 13.4721 3.24702C13.3215 3.21657 13.1649 3.24719 13.0369 3.33216C12.9089 3.41713 12.8198 3.54948 12.7894 3.70009C12.7589 3.85071 12.7895 4.00725 12.8745 4.13528C12.9595 4.26331 13.0918 4.35235 13.2424 4.3828ZM12.3386 7.13532C13.1122 7.29841 13.7899 7.76098 14.2236 8.42202C14.6574 9.08307 14.8119 9.88887 14.6536 10.6635C14.6225 10.8135 14.6523 10.9696 14.7363 11.0977C14.8203 11.2258 14.9517 11.3153 15.1016 11.3466C15.1398 11.3546 15.1787 11.3586 15.2178 11.3586C15.3508 11.358 15.4796 11.3114 15.5822 11.2267C15.6848 11.142 15.755 11.0244 15.7808 10.8939C16.0005 9.81928 15.7861 8.7014 15.1844 7.78432C14.5827 6.86725 13.6426 6.22548 12.5694 5.99915C12.4192 5.96977 12.2635 6.00095 12.1363 6.08591C12.009 6.17087 11.9205 6.3027 11.89 6.45266C11.8595 6.60262 11.8896 6.75855 11.9737 6.88643C12.0577 7.01431 12.1889 7.10378 12.3386 7.13532ZM16.6269 13.4114C16.473 13.2739 16.292 13.1699 16.0957 13.1062C15.8994 13.0425 15.6919 13.0203 15.4865 13.0411C15.2593 13.0791 15.0419 13.1617 14.8468 13.2842C14.6517 13.4067 14.4828 13.5667 14.35 13.7548C14.1765 13.974 13.8818 14.3419 13.7792 14.4631C13.0868 15.281 12.6047 15.0079 12.2809 14.8015C11.3605 13.9713 10.5264 13.0502 9.79134 12.0521C9.78229 12.0387 9.77246 12.0257 9.76191 12.0134L9.75068 11.9979C9.74264 11.9874 9.73437 11.9771 9.7259 11.9669C8.94087 11.0005 8.25571 9.95716 7.68087 8.85274C7.56044 8.48795 7.41329 7.95317 8.3721 7.47648C8.38798 7.46912 8.41315 7.45866 8.44606 7.44472C8.94836 7.25282 9.41175 6.97153 9.8138 6.61448C10.0563 6.38811 10.2191 6.08936 10.2778 5.76286C10.3365 5.43635 10.288 5.09961 10.1395 4.80296C9.42423 3.41326 8.61576 2.07357 7.7196 0.793065C7.59972 0.600602 7.44218 0.434354 7.25643 0.304307C7.07069 0.17426 6.86058 0.0830978 6.63872 0.036295C6.41686 -0.0105078 6.18782 -0.0119851 5.96538 0.0319519C5.74293 0.0758888 5.53166 0.164333 5.34425 0.291973L5.97894 1.25737C6.04378 1.21017 6.11832 1.17804 6.19715 1.1633C6.27597 1.14857 6.35709 1.15161 6.4346 1.1722C6.5121 1.19279 6.58403 1.23041 6.64515 1.28233C6.70627 1.33424 6.75503 1.39914 6.78789 1.47229C7.64437 2.69791 8.41837 3.97916 9.10476 5.30753C9.15109 5.38692 9.16613 5.48073 9.14693 5.57061C9.12774 5.6605 9.07569 5.73999 9.00098 5.79352C8.70114 6.04095 8.36253 6.2372 7.9988 6.37439C7.95385 6.39319 7.90931 6.41295 7.8652 6.43363C7.00359 6.86231 6.08389 7.69837 6.60047 9.24811C6.60705 9.26825 6.61518 9.28683 6.6237 9.30736C7.23946 10.509 7.97925 11.643 8.83098 12.6907L8.84531 12.7089C8.85228 12.719 8.85964 12.7286 8.867 12.7379C9.6651 13.8242 10.5751 14.8236 11.582 15.7197C11.5989 15.7337 11.6168 15.7467 11.6354 15.7584C13.0055 16.6359 14.034 15.9455 14.6559 15.2128C14.7833 15.0626 15.1182 14.6428 15.2511 14.4751L15.2666 14.4554C15.3502 14.326 15.4779 14.2312 15.6259 14.1885C15.7301 14.1899 15.8295 14.2325 15.9024 14.307C16.9728 15.1672 17.986 16.0961 18.9357 17.0878C18.9508 17.107 18.9669 17.1254 18.9841 17.1428C19.5347 17.6939 19.3632 18.0234 19.3067 18.1314C19.2358 18.2674 19.2216 18.4258 19.2671 18.5722C19.3126 18.7186 19.4141 18.841 19.5495 18.9129C19.6315 18.9566 19.723 18.9793 19.8159 18.9791C19.9211 18.9791 20.0243 18.9502 20.1142 18.8956C20.2042 18.841 20.2774 18.7627 20.3259 18.6693C20.5114 18.3131 20.8293 17.3783 19.8205 16.3459C19.2095 15.5849 17.152 13.8424 16.6269 13.4114ZM8.97697 12.8305C9.01849 12.8572 9.06326 12.8784 9.11018 12.8936C9.06316 12.8778 9.01839 12.8559 8.97697 12.8286V12.8305ZM14.3713 0.520059C14.2208 0.489505 14.0645 0.519952 13.9365 0.604701C13.8085 0.689451 13.7195 0.821562 13.6889 0.97197C13.6584 1.12238 13.6888 1.27876 13.7736 1.40672C13.8583 1.53468 13.9904 1.62374 14.1408 1.65429C16.2231 2.09317 18.0471 3.33824 19.2144 5.11755C20.3817 6.89686 20.7974 9.06581 20.3708 11.1506C20.3399 11.3006 20.3697 11.4567 20.4537 11.5848C20.5376 11.7128 20.669 11.8023 20.8188 11.8337C20.857 11.8417 20.896 11.8457 20.935 11.8457C21.0681 11.8451 21.1968 11.7985 21.2994 11.7138C21.4021 11.6291 21.4722 11.5116 21.4981 11.381C21.986 8.99616 21.5104 6.51508 20.1751 4.47973C18.8397 2.44438 16.7532 1.02015 14.3713 0.518123V0.520059ZM18.8954 19.6235C18.89 19.6035 18.8835 19.5839 18.876 19.5646C18.8702 19.5484 18.866 19.5321 18.859 19.5162C18.852 19.5003 18.8416 19.4849 18.8327 19.4694C18.8232 19.4511 18.8125 19.4334 18.8009 19.4163C18.8009 19.414 18.7986 19.4117 18.797 19.4093C18.7862 19.3946 18.773 19.3834 18.761 19.3706C18.749 19.3578 18.7413 19.3454 18.7297 19.3342L16.1859 16.9294C16.131 16.8774 16.0663 16.8368 15.9956 16.8099C15.9249 16.783 15.8496 16.7704 15.7739 16.7727C15.6983 16.7751 15.6239 16.7924 15.5551 16.8237C15.4862 16.855 15.4242 16.8996 15.3727 16.955C15.268 17.0671 15.212 17.2161 15.2168 17.3694C15.2216 17.5227 15.2868 17.6679 15.3982 17.7732L17.4297 19.694C16.3361 20.4371 15.3901 20.8418 14.7264 20.8418C14.4233 20.8435 14.1242 20.7721 13.8547 20.6334C13.8392 20.623 13.8232 20.6134 13.8067 20.6048C11.1539 19.0688 8.82293 17.0346 6.94202 14.6141L6.75188 14.3675C4.87707 11.9294 3.48947 9.15302 2.66493 6.19006C2.66493 6.18348 2.66028 6.17341 2.65796 6.16644C2.57112 5.88442 2.56776 5.58329 2.64828 5.2994C2.96646 4.49396 3.42539 3.75153 4.00362 3.10684L5.53633 5.60339C5.58765 5.68726 5.65964 5.75655 5.74541 5.80462C5.83118 5.8527 5.92786 5.87794 6.02619 5.87794C6.13302 5.87798 6.23771 5.84792 6.32824 5.7912C6.45813 5.70989 6.55063 5.58055 6.58559 5.43136C6.62055 5.28216 6.59514 5.12519 6.51489 4.99464L4.6174 1.90329C4.58678 1.85516 4.5492 1.81183 4.50588 1.77472C4.49852 1.76659 4.4931 1.7573 4.48496 1.74917C4.43119 1.696 4.36741 1.65402 4.29732 1.62565C4.22722 1.59728 4.1522 1.58308 4.07658 1.58387C4.00097 1.58466 3.92626 1.60043 3.85678 1.63027C3.78729 1.6601 3.72441 1.70341 3.67176 1.75768C2.75556 2.64626 2.03799 3.71884 1.56632 4.9048C1.40193 5.42065 1.39774 5.97422 1.55432 6.4925C2.42155 9.60224 3.87773 12.5166 5.8438 15.0773L6.03393 15.3232C7.97014 17.8278 10.8005 20.2961 13.2498 21.6166C13.6998 21.8708 14.2087 22.0024 14.7256 21.9981C15.7766 21.9981 17.1067 21.3994 18.6789 20.2167C18.6966 20.2026 18.7133 20.1874 18.7289 20.171C18.737 20.1633 18.7463 20.1575 18.7541 20.149L18.7575 20.1447C18.7754 20.1245 18.7917 20.103 18.8063 20.0804C18.8129 20.0708 18.8211 20.0618 18.8269 20.0522C18.8391 20.0306 18.8498 20.0082 18.859 19.9852C18.8644 19.9732 18.871 19.9619 18.8757 19.9495C18.8826 19.9275 18.8885 19.9052 18.8931 19.8826C18.8962 19.869 18.9008 19.8554 18.9028 19.8419C18.9059 19.8185 18.9074 19.795 18.9074 19.7714C18.9074 19.7582 18.9097 19.7447 18.9074 19.7327C18.906 19.7095 18.903 19.6865 18.8985 19.6638C18.8994 19.6496 18.8984 19.6354 18.8954 19.6216V19.6235Z" fill="white"/>
</svg>

<svg width="23" height="22" fill="none" xmlns="http://www.w3.org/2000/svg"><path fill-rule="evenodd" clip-rule="evenodd" d="M13.242 4.383a5.457 5.457 0 0 1 3.48 2.372 5.519 5.519 0 0 1 .8 4.153.582.582 0 0 0 .565.695.577.577 0 0 0 .563-.465 6.677 6.677 0 0 0-.968-5.023 6.6 6.6 0 0 0-4.21-2.868.58.58 0 0 0-.23 1.136Zm-.903 2.752a2.993 2.993 0 0 1 2.315 3.529.578.578 0 0 0 .564.695.577.577 0 0 0 .563-.465 4.152 4.152 0 0 0-3.212-4.895.58.58 0 0 0-.23 1.136Zm4.288 6.276a1.486 1.486 0 0 0-1.14-.37 1.744 1.744 0 0 0-1.137.714c-.173.219-.468.587-.57.708-.693.818-1.175.545-1.5.339a18.384 18.384 0 0 1-2.518-2.789l-.011-.015a18.447 18.447 0 0 1-2.07-3.145c-.12-.365-.268-.9.691-1.377l.074-.031a4.453 4.453 0 0 0 1.368-.83 1.537 1.537 0 0 0 .325-1.812A34.644 34.644 0 0 0 7.72.793 1.683 1.683 0 0 0 5.345.292l.635.965a.54.54 0 0 1 .809.215 33.715 33.715 0 0 1 2.317 3.836.369.369 0 0 1-.104.486c-.3.247-.638.443-1.002.58-.045.02-.09.039-.134.06-.861.428-1.781 1.264-1.265 2.814l.024.06A19.36 19.36 0 0 0 8.83 12.69l.014.018.022.029a19.246 19.246 0 0 0 2.715 2.982.507.507 0 0 0 .053.038c1.37.878 2.399.188 3.02-.545.128-.15.463-.57.596-.738l.016-.02a.639.639 0 0 1 .359-.267.394.394 0 0 1 .276.119c1.07.86 2.084 1.79 3.034 2.78.015.02.03.038.048.056.55.55.38.88.323.988a.58.58 0 0 0 .509.848.575.575 0 0 0 .51-.31c.185-.356.503-1.29-.506-2.323-.61-.761-2.668-2.504-3.193-2.935Zm-7.65-.58a.572.572 0 0 0 0-.002v.002ZM14.371.52a.579.579 0 0 0-.23 1.133 8.055 8.055 0 0 1 6.23 9.497.579.579 0 0 0 .564.695.576.576 0 0 0 .563-.465A9.214 9.214 0 0 0 14.371.518V.52Zm4.524 19.102a.58.58 0 0 0-.019-.058c-.006-.017-.01-.033-.017-.049-.007-.016-.017-.031-.026-.047a.529.529 0 0 0-.032-.053l-.004-.007c-.01-.014-.024-.026-.036-.038-.012-.013-.02-.026-.031-.037l-2.544-2.405a.573.573 0 0 0-.813.026.58.58 0 0 0 .025.818l2.032 1.921c-1.094.743-2.04 1.148-2.704 1.148a1.882 1.882 0 0 1-.871-.209 23.79 23.79 0 0 1-6.913-6.02l-.19-.245A23.947 23.947 0 0 1 2.665 6.19c0-.007-.005-.017-.007-.024a1.529 1.529 0 0 1-.01-.867 7.302 7.302 0 0 1 1.356-2.192l1.532 2.496a.574.574 0 0 0 1.05-.172.58.58 0 0 0-.071-.436L4.617 1.903a.577.577 0 0 0-.111-.128c-.007-.008-.013-.018-.021-.026a.572.572 0 0 0-.813.009 9.036 9.036 0 0 0-2.106 3.147 2.678 2.678 0 0 0-.012 1.587 25.222 25.222 0 0 0 4.29 8.585l.19.246c1.936 2.505 4.766 4.973 7.216 6.294.45.254.959.385 1.476.381 1.05 0 2.38-.599 3.953-1.781a.492.492 0 0 0 .05-.046l.025-.022.003-.004a.533.533 0 0 0 .05-.065l.02-.028a.556.556 0 0 0 .032-.067l.017-.035a.67.67 0 0 0 .017-.067c.003-.014.008-.028.01-.041a.536.536 0 0 0 .004-.07c0-.014.003-.027 0-.04a.513.513 0 0 0-.009-.068c.001-.014 0-.029-.003-.042v.002Z" fill="#fff"/></svg>
